Numix/22/actions/edit-rename.svg

<svg xmlns="http://www.w3.org/2000/svg" viewBox="0 0 22 22">
 <rect width="20" height="10" x="1" y="6" rx="1" style="fill:#888;opacity:1;fill-opacity:1;stroke:none"/>
 <rect width="18" height="8" x="2" y="7" rx="0.5" style="fill:#fff;opacity:1;fill-opacity:1;stroke:none"/>
 <path d="m 4 8 l 0 1 l 1 0 l 0 4 l -1 0 l 0 1 l 3 0 l 0 -1 l -1 0 l 0 -4 l 1 0 l 0 -1 l -3 0 z" style="fill:#859900;opacity:1;fill-opacity:1;stroke:none"/>
</svg>

<?xml version="1.0" encoding="UTF-8" standalone="no"?>
<svg
   xmlns:dc="http://purl.org/dc/elements/1.1/"
   xmlns:cc="http://creativecommons.org/ns#"
   xmlns:rdf="http://www.w3.org/1999/02/22-rdf-syntax-ns#"
   xmlns:svg="http://www.w3.org/2000/svg"
   xmlns="http://www.w3.org/2000/svg"
   xmlns:sodipodi="http://sodipodi.sourceforge.net/DTD/sodipodi-0.dtd"
   xmlns:inkscape="http://www.inkscape.org/namespaces/inkscape"
   width="22"
   height="22"
   viewBox="0 0 22 22"
   id="svg2"
   version="1.1"
   inkscape:version="0.91 r13725"
   sodipodi:docname="edit-rename.svg">
  <metadata
     id="metadata16">
    <rdf:RDF>
      <cc:Work
         rdf:about="">
        <dc:format>image/svg+xml</dc:format>
        <dc:type
           rdf:resource="http://purl.org/dc/dcmitype/StillImage" />
        <dc:title></dc:title>
      </cc:Work>
    </rdf:RDF>
  </metadata>
  <defs
     id="defs14" />
  <sodipodi:namedview
     pagecolor="#ffffff"
     bordercolor="#666666"
     borderopacity="1"
     objecttolerance="10"
     gridtolerance="10"
     guidetolerance="10"
     inkscape:pageopacity="0"
     inkscape:pageshadow="2"
     inkscape:window-width="1366"
     inkscape:window-height="704"
     id="namedview12"
     showgrid="false"
     inkscape:zoom="1"
     inkscape:cx="4.1447499"
     inkscape:cy="10.785251"
     inkscape:window-x="0"
     inkscape:window-y="27"
     inkscape:window-maximized="1"
     inkscape:current-layer="svg2"
     inkscape:object-nodes="true">
    <inkscape:grid
       type="xygrid"
       id="grid4223" />
  </sodipodi:namedview>
  <rect
     style="opacity:1;fill:#888888;fill-opacity:1;stroke:none;stroke-width:2;stroke-linecap:round;stroke-linejoin:round;stroke-miterlimit:4;stroke-dasharray:none;stroke-opacity:1"
     id="rect4139"
     width="20"
     height="10"
     x="1"
     y="6"
     rx="1"
     ry="1" />
  <rect
     style="opacity:1;fill:#ffffff;fill-opacity:1;stroke:none;stroke-width:2;stroke-linecap:round;stroke-linejoin:round;stroke-miterlimit:4;stroke-dasharray:none;stroke-opacity:1"
     id="rect4141"
     width="18"
     height="8"
     x="2"
     y="7"
     rx="0.5"
     ry="0.5" />
  <path
     style="opacity:1;fill:#859900;fill-opacity:1;stroke:none;stroke-width:2;stroke-linecap:round;stroke-linejoin:round;stroke-miterlimit:4;stroke-dasharray:none;stroke-opacity:1"
     d="M 4 8 L 4 9 L 5 9 L 5 13 L 4 13 L 4 14 L 7 14 L 7 13 L 6 13 L 6 9 L 7 9 L 7 8 L 4 8 z "
     id="rect4143" />
</svg>
